nds/art/logo.svg

<?xml version="1.0" encoding="utf-8"?>
<!-- Generator: Adobe Illustrator 16.0.3, SVG Export Plug-In . SVG Version: 6.00 Build 0)  -->
<!DOCTYPE svg PUBLIC "-//W3C//DTD SVG 1.1//EN" "http://www.w3.org/Graphics/SVG/1.1/DTD/svg11.dtd">
<svg version="1.1" id="svg101576" xmlns:svg="http://www.w3.org/2000/svg"
	 xmlns="http://www.w3.org/2000/svg" xmlns:xlink="http://www.w3.org/1999/xlink" x="0px" y="0px" width="566.929px"
	 height="78.275px" viewBox="0 0 566.929 78.275" enable-background="new 0 0 566.929 78.275" xml:space="preserve">
<g>
	<path id="path100608" fill="#999999" d="M347.884,70.38c0,0.83-0.682,1.578-1.521,1.578h-29.101c-0.848,0-1.528-0.748-1.528-1.578
		V49.358c0-0.832,0.682-1.496,1.528-1.496h29.101c0.84,0,1.521,0.664,1.521,1.496V70.38z M346.621,41.546h-29.622
		c-4.287,0-7.786,3.49-7.786,7.813v21.105c0,4.236,3.499,7.813,7.786,7.813h29.622c4.297,0,7.787-3.574,7.787-7.813V49.358
		C354.408,45.036,350.917,41.546,346.621,41.546"/>
	<path id="path100618" d="M6.797,9.97c0,0,0,26.757,0,27.173c-0.357,0-6.433,0-6.797,0C0,36.727,0,0.829,0,0.414
		c0.382,0,5.633,0,5.808,0L33.337,27.17c0,0,0-26.341,0-26.756c0.374,0,5.442,0,5.442,0s0.964,0,1.264,0c0,0.416,0,36.313,0,36.729
		c-0.366,0-5.127,0-5.311,0L6.797,9.97"/>
	<path id="path100622" d="M74.943,9.97c0,0,0,26.757,0,27.173c-0.366,0-6.423,0-6.797,0c0-0.416,0-36.313,0-36.729
		c0.382,0,5.625,0,5.8,0l27.529,26.756c0,0,0-26.341,0-26.756c0.374,0,5.451,0,5.451,0s0.972,0,1.263,0c0,0.416,0,36.313,0,36.729
		c-0.374,0-5.127,0-5.31,0L74.943,9.97"/>
	<path id="path100626" d="M216.179,9.97c0,0,0,26.757,0,27.173c-0.375,0-6.424,0-6.797,0c0-0.416,0-36.313,0-36.729
		c0.382,0,5.635,0,5.8,0l27.529,26.756c0,0,0-26.341,0-26.756c0.374,0,5.45,0,5.45,0s0.973,0,1.264,0c0,0.416,0,36.313,0,36.729
		c-0.374,0-5.127,0-5.301,0L216.179,9.97"/>
	<path id="path100630" d="M56.23,0.414c0,0,0.964,0,1.255,0c0,0.416,0,36.313,0,36.729c-0.356,0-6.431,0-6.797,0
		c0-0.416,0-36.313,0-36.729C51.062,0.414,56.23,0.414,56.23,0.414"/>
	<path id="path100634" d="M154.482,0.414c0,0,0.947,0,1.246,0c0,0.333,0,5.983,0,6.315c-0.398,0-16.386,0-16.386,0
		s0,29.997,0,30.413c-0.366,0-6.697,0-7.063,0c0-0.416,0-30.413,0-30.413s-15.986,0-16.386,0c0-0.332,0-5.983,0-6.315
		C116.299,0.414,154.482,0.414,154.482,0.414"/>
	<path id="path100638" d="M198.023,0.414c0,0,0.98,0,1.271,0c0,0.333,0,5.983,0,6.315c-0.391,0-29.134,0-29.134,0v8.226
		c0,0,22.153,0,22.536,0c0,0.416,0,5.9,0,6.316c-0.383,0-22.536,0-22.536,0v9.555c0,0,28.743,0,29.134,0c0,0.333,0,5.9,0,6.315
		c-0.391,0-35.474,0-35.863,0c0-0.416,0-36.313,0-36.729C163.821,0.414,198.023,0.414,198.023,0.414"/>
	<path id="path100642" d="M287.216,30.827h-20.873V6.731h20.874c6.531,0,8.851,6.48,8.851,12.049
		C296.066,24.262,293.749,30.827,287.216,30.827z M298.369,5.817c-2.659-3.573-6.59-5.401-11.344-5.401c0,0-26.838,0-27.238,0
		c0,0.416,0,36.313,0,36.729c0.398,0,27.238,0,27.238,0c4.754,0,8.685-1.911,11.344-5.401c2.492-3.24,3.813-7.728,3.813-12.962
		C302.181,13.543,300.861,9.057,298.369,5.817"/>
	<path id="path100646" d="M347.884,29.331c0,0.748-0.682,1.496-1.521,1.496h-29.101c-0.848,0-1.528-0.748-1.528-1.496V8.226
		c0-0.831,0.682-1.496,1.528-1.496h29.101c0.84,0,1.521,0.665,1.521,1.496V29.331z M346.621,0.414h-29.622
		c-4.287,0-7.786,3.49-7.786,7.812v21.105c0,4.321,3.499,7.812,7.786,7.812h29.622c4.297,0,7.787-3.49,7.787-7.812V8.226
		C354.408,3.906,350.917,0.414,346.621,0.414"/>
	<path id="path100656" d="M470.017,62.737c7.045,2.824,21.928,5.066,33.545,5.066c12.713,0,17.973-4.32,17.973-9.805
		c0-4.986-4.887-7.811-18.92-12.963c-18.771-6.896-32.541-12.38-32.541-24.762c0-12.713,16.57-20.274,41.822-20.274
		c13.561,0,18.215,0.831,26.822,2.41l0.066,12.131c-8.459-1.578-15.955-4.321-27.596-4.321c-12.48,0-17.799,3.988-17.799,8.062
		c0,5.9,8.191,8.725,22.561,13.876c20,7.146,31.127,12.629,31.127,24.68c0,12.463-13.936,21.438-45.361,21.438
		c-12.904,0-21.805-0.832-31.699-2.492V62.737"/>
	<path id="path100660" d="M403.125,10.719h-14.955v56.67h14.955c22.961,0,37.443-9.889,37.443-28.252
		C440.568,20.773,426.085,10.719,403.125,10.719z M443.269,72.624c-7.396,3.324-21.391,5.484-33.621,5.484H362.9V0.165h46.748
		c12.23,0,26.225,2.16,33.637,5.484c18.008,8.143,23.873,21.188,23.873,33.486C467.158,51.436,461.341,64.481,443.269,72.624"/>
	<path id="path100678" d="M551.773,66.475h-3v-1.08h7.305v1.08h-3.016V75.2h-1.289V66.475"/>
	<path id="path100682" d="M565.443,70.878c-0.076-1.328-0.158-2.99-0.158-4.236h-0.033c-0.35,1.162-0.748,2.408-1.246,3.738
		l-1.736,4.82h-0.965l-1.611-4.736c-0.465-1.414-0.848-2.66-1.121-3.822h-0.033c-0.025,1.246-0.102,2.908-0.184,4.32l-0.268,4.238
		h-1.213l0.689-9.807h1.621l1.68,4.736c0.406,1.246,0.73,2.326,0.996,3.324h0.025c0.266-0.998,0.613-2.078,1.055-3.324l1.754-4.736
		h1.619l0.615,9.807h-1.254L565.443,70.878"/>
</g>
</svg>

<?xml version="1.0" encoding="UTF-8" standalone="no"?>
<!DOCTYPE svg PUBLIC "-//W3C//DTD SVG 1.1//EN" "http://www.w3.org/Graphics/SVG/1.1/DTD/svg11.dtd">
<svg width="100%" height="100%" viewBox="0 0 567 79" version="1.1" xmlns="http://www.w3.org/2000/svg" xmlns:xlink="http://www.w3.org/1999/xlink" xml:space="preserve" xmlns:serif="http://www.serif.com/" style="fill-rule:evenodd;clip-rule:evenodd;stroke-linejoin:round;stroke-miterlimit:2;">
    <g>
        <path id="path100608" d="M347.884,70.38C347.884,71.21 347.202,71.958 346.363,71.958L317.262,71.958C316.414,71.958 315.734,71.21 315.734,70.38L315.734,49.358C315.734,48.526 316.416,47.862 317.262,47.862L346.363,47.862C347.203,47.862 347.884,48.526 347.884,49.358L347.884,70.38ZM346.621,41.546L316.999,41.546C312.712,41.546 309.213,45.036 309.213,49.359L309.213,70.464C309.213,74.7 312.712,78.277 316.999,78.277L346.621,78.277C350.918,78.277 354.408,74.703 354.408,70.464L354.408,49.358C354.408,45.036 350.917,41.546 346.621,41.546" style="fill:rgb(153,153,153);fill-rule:nonzero;"/>
        <path id="path100618" d="M6.797,9.97L6.797,37.143L0,37.143L0,0.414L5.808,0.414L33.337,27.17L33.337,0.414L40.043,0.414L40.043,37.143L34.732,37.143L6.797,9.97" style="fill:white;fill-rule:nonzero;"/>
        <path id="path100622" d="M74.943,9.97L74.943,37.143L68.146,37.143L68.146,0.414L73.946,0.414L101.475,27.17L101.475,0.414L108.189,0.414L108.189,37.143L102.879,37.143L74.943,9.97" style="fill:white;fill-rule:nonzero;"/>
        <path id="path100626" d="M216.179,9.97L216.179,37.143L209.382,37.143L209.382,0.414L215.182,0.414L242.711,27.17L242.711,0.414L249.425,0.414L249.425,37.143L244.124,37.143L216.179,9.97" style="fill:white;fill-rule:nonzero;"/>
        <path id="path100630" d="M56.23,0.414L57.485,0.414L57.485,37.143L50.688,37.143L50.688,0.414L56.23,0.414" style="fill:white;fill-rule:nonzero;"/>
        <path id="path100634" d="M154.482,0.414L155.728,0.414L155.728,6.729L139.342,6.729L139.342,37.142L132.279,37.142L132.279,6.729L115.893,6.729L115.893,0.414L154.482,0.414" style="fill:white;fill-rule:nonzero;"/>
        <path id="path100638" d="M198.023,0.414L199.294,0.414L199.294,6.729L170.16,6.729L170.16,14.955L192.696,14.955L192.696,21.271L170.16,21.271L170.16,30.826L199.294,30.826L199.294,37.141L163.431,37.141L163.431,0.412C163.821,0.414 198.023,0.414 198.023,0.414" style="fill:white;fill-rule:nonzero;"/>
        <path id="path100642" d="M287.216,30.827L266.343,30.827L266.343,6.731L287.217,6.731C293.748,6.731 296.068,13.211 296.068,18.78C296.066,24.262 293.749,30.827 287.216,30.827ZM298.369,5.817C295.71,2.244 291.779,0.416 287.025,0.416L259.787,0.416L259.787,37.145L287.025,37.145C291.779,37.145 295.71,35.234 298.369,31.744C300.861,28.504 302.182,24.016 302.182,18.782C302.181,13.543 300.861,9.057 298.369,5.817" style="fill:white;fill-rule:nonzero;"/>
        <path id="path100646" d="M347.884,29.331C347.884,30.079 347.202,30.827 346.363,30.827L317.262,30.827C316.414,30.827 315.734,30.079 315.734,29.331L315.734,8.226C315.734,7.395 316.416,6.73 317.262,6.73L346.363,6.73C347.203,6.73 347.884,7.395 347.884,8.226L347.884,29.331ZM346.621,0.414L316.999,0.414C312.712,0.414 309.213,3.904 309.213,8.226L309.213,29.331C309.213,33.652 312.712,37.143 316.999,37.143L346.621,37.143C350.918,37.143 354.408,33.653 354.408,29.331L354.408,8.226C354.408,3.906 350.917,0.414 346.621,0.414" style="fill:white;fill-rule:nonzero;"/>
        <path id="path100656" d="M470.017,62.737C477.062,65.561 491.945,67.803 503.562,67.803C516.275,67.803 521.535,63.483 521.535,57.998C521.535,53.012 516.648,50.187 502.615,45.035C483.844,38.139 470.074,32.655 470.074,20.273C470.074,7.56 486.644,-0.001 511.896,-0.001C525.457,-0.001 530.111,0.83 538.718,2.409L538.784,14.54C530.325,12.962 522.829,10.219 511.188,10.219C498.708,10.219 493.389,14.207 493.389,18.281C493.389,24.181 501.58,27.006 515.95,32.157C535.95,39.303 547.077,44.786 547.077,56.837C547.077,69.3 533.141,78.275 501.716,78.275C488.812,78.275 479.911,77.443 470.017,75.783L470.017,62.737" style="fill:white;fill-rule:nonzero;"/>
        <path id="path100660" d="M403.125,10.719L388.17,10.719L388.17,67.389L403.125,67.389C426.086,67.389 440.568,57.5 440.568,39.137C440.568,20.773 426.085,10.719 403.125,10.719ZM443.269,72.624C435.873,75.948 421.878,78.108 409.648,78.108L362.9,78.108L362.9,0.165L409.648,0.165C421.878,0.165 435.873,2.325 443.285,5.649C461.293,13.792 467.158,26.837 467.158,39.135C467.158,51.436 461.341,64.481 443.269,72.624" style="fill:white;fill-rule:nonzero;"/>
        <path id="path100678" d="M551.773,66.475L548.773,66.475L548.773,65.395L556.078,65.395L556.078,66.475L553.062,66.475L553.062,75.2L551.773,75.2L551.773,66.475" style="fill:white;fill-rule:nonzero;"/>
        <path id="path100682" d="M565.443,70.878C565.367,69.55 565.285,67.888 565.285,66.642L565.252,66.642C564.902,67.804 564.504,69.05 564.006,70.38L562.27,75.2L561.305,75.2L559.694,70.464C559.229,69.05 558.846,67.804 558.573,66.642L558.54,66.642C558.515,67.888 558.438,69.55 558.356,70.962L558.088,75.2L556.875,75.2L557.564,65.393L559.185,65.393L560.865,70.129C561.271,71.375 561.595,72.455 561.861,73.453L561.886,73.453C562.152,72.455 562.499,71.375 562.941,70.129L564.695,65.393L566.314,65.393L566.929,75.2L565.675,75.2L565.443,70.878" style="fill:white;fill-rule:nonzero;"/>
    </g>
</svg>
